!!!OTL: Die Brombeerpflueckerin Es wollt ein Maedchen frueh aufstehn,
!!!ARE: Europa, Mitteleuropa, Schweiz, Bern
!!!YOR: 7, S. 106
!!    1915 aufgezeichnet (vor)
!!!SCT: Q0147M
!!!YEM: Copyright 1995, estate of Helmut Schaffrath.
**kern
*ICvox
*Ivox
*M2/4
*k[f#]
*G:
{8d
=1
8g
8g
8g
8a
=2
8f#
8e
8d}
{8d
=3
8g
8g
8a
8cc
=4
4b
8r}
{8a
=5
8b
8b
8b
8a
=6
8b
8cc
4dd
=7
8r}
{8a
8a
8g
=8
8a
8b
8cc}
{8dd
=9
8b
8b
8a
16a
16a
=10
4g}
{4g
=11
8b
8dd
8a
16a
16a
=12
4g
8r}
==
!!!AGN: Ballade, Verfuehrung, Schwangerschaft
!! Vierte Zeile refrainartig.
!!!ONB: ESAC (Essen Associative Code) Database: BALLADE
!!!AMT: simple duple
!!!AIN: vox
!!!EED: Helmut Schaffrath
!!!EEV: 1.0
*-
